X:1
T:Come, sable night - Ward
T:James Gibb editions
T:#
%%score { 1 | 2 } 3 { 4 | 5 } 6
L:1/8
Q:1/4=100
M:2/2
K:Bb
V:1 treble nm="Soprano I" snm="S"
V:2 treble 
V:3 treble nm="Alto " snm="A"
V:4 treble-8 nm="Tenor I" snm="T"
V:5 treble-8 
V:6 bass nm="Bass" snm="B"
V:1
"^Come, sable night""^John Ward\n(1571-1638)" z4!mf! G4- | G4 c4- | c4 =B4 | c4 G4 | G4 F4 | G8- | %6
w: Come,|* sa\-|* ble|night, come,|sa- ble|night,|
 G8 |[M:2/2] z8 | z8 | z8 | z8 | z8 | z8 | z8 | z8 | z8 | z4!mf! c4- | c4 e4- | e2 G2 B4- | %19
w: ||||||||||put|* on|* thy mourn\-|
 B4 _A4 | G8 | z2"^cresc." d2 g4- | g2 =B2 !courtesy!_e4 | d8 |!f! c8 | z2!p! =e2 e2 e2 | f8 | %27
w: * ing|stole,|put on|* thy mourn-|ing|stole,|And help A-|myn-|
 =e8 | z8 | z8 | z8 | z8 | z4 c4- | c2 B2 A2 G2 | ^F4 d4- | d2 c2 B2 A2 | G4"^cresc." e4- | %37
w: tas|||||sad\-|* ly to con-|dole, sad\-|* ly to con-|dole, sad\-|
 e2 d2 c2 B2 | A4 f4- | f2 e2 d2 c2 | =B4 c4- |!>(! c4 =B4 | c8!>)! | z4!pp! c4- | c2 B2 (A2 G2) | %45
w: * ly to con-|dole, sad\-|* ly to con-|dole, to|* con-|dole,|sad\-|* ly to *|
 A8 | =B8 | z4!mf! d4 | e8 | z8 | z8 | z8 | d2 f4 e2 | d3 d g3 g | ^f4 d2 c2- | c2 B2 A3 A | %56
w: con-|dole.|Be-|hold,||||the sun hath|shut his gold- en|eye, The day,|* the day is|
 =B4 z4 | z4 z2 g2 | c4 z2 e2 | G6 A2 | =B4 c4 | d4 e4 |"^dim." d4 c4- | c2 B2 A4 | =B8 | z8 | z8 | %67
w: spent,|and|shades, and|shades fair|lights sup-|ply, and|shades fair|* lights sup-|ply.|||
 z8 | z8 | z4!p! d2 dc | B3 A G4 | z4 g2 gf | e3 d c4 | z4 f2 fe | d3 c B2 f2 | e4 d4 | d8 | %77
w: ||All things in|sweet re- pose,|all things in|sweet re- pose,|all things in|sweet re- pose Their|la- bours|close~;|
 z4!mf! d4- | d2 d"^dim."d B2 A2 | z2!p! d2 B2 A2 | z8 | z8 | z8 | z8 | z8 | z8 | z4 f4- | %87
w: On\-|* ly A- myn- tas,|A- myn- tas|||||||wastes|
 f2 (ed) c2 d2 | e4 d4- | d4 d4 | d8- | d8 | d8 | z8 | z8 | z4 G4 | (B8- | B4 A2 G2) | A4 A4 | G8 | %100
w: * his * hours in|wail- ing,|* in|wail\-||ing,|||in|wail\-||ing, in|wail-|
 G8 | z8 | z8 | z8 | z4 z2!mf! d2 | e2 f2 g2 =B2 | c2 c2 f4- | f4"^dim." e4 | d8 | c8 |!p! G4 B4- | %111
w: ing,||||Whilst|all his hopes do|faint, and life|* is|fail-|ing,|and life|
 B4 _A4 | G4 G2 c2 | d2 =e2 f2 =B2 | c3 d _e4- | e4 d4 |"^dim." (c8 | =B2 c4 B2) | c2!pp! c2 f4- | %119
w: * is|fail- ing, whilst|all his hopes do|faint, and life|* is|fail\-||ing, and life|
 f4 e4 | d8 | !fermata!=e8 |] %122
w: * is|fail-|ing.|
V:2
 z8 | z8 | z8 |!mf! G8 | c6 c2 | =B8 | z8 |[M:2/2] z8 | z8 | z4!mp! d4- | d4 f4- | f2 A2 (c4- | %12
w: |||Come,|sa- ble|night,||||put|* on|* thy mourn\-|
 c4 B4) | A8 | G4 e4 | d4 d4 | c8- | c8 | z8 | z4!mf! c4- | c4 g4- | g2 =B2"^cresc." (d4- | %22
w: |ing|stole, thy|mourn- ing|stole,|||put|* on|* thy mourn\-|
 d4 c4- | c4) =B4 |!f! c8 | z2!p! c2 c2 c2 | c8 | c8 | z8 | z8 | z8 | z8 | z8 | z4 c4- | %34
w: |* ing|stole,|And help A-|myn-|tas||||||sad\-|
 c2 B2 A2 G2 | ^F4 d4- | d2 c2 B2 A2 | G4"^cresc." e4- | e2 d2 c2 B2 | A4 f4- | f2 e2 (d2 c2) | %41
w: * ly to con-|dole, sad\-|* ly to con-|dole, sad\-|* ly to con-|dole, sad\-|* ly to *|
 d8 | c4!pp! c4- | c2 B2 A2 G2 | ^F4 G4- | G4 ^F4 | G8 | z4!mf! =B4 | c8 | G2 B4 _A2 | G3 G c3 c | %51
w: con-|dole, sad\-|* ly to con-|dole, to|* con-|dole.|Be-|hold,|the sun hath|shut his gold- en|
 =B4 d2 _B2- | B2 c2 d3 c | Bc d4 c2 | d4 B2 A2- | A2 G2 G2 ^F2 | G2 d2 G4- | G4 z4 | z2 g2 c4 | %59
w: eye, be- hold,|* the sun hath|shut his gold- en|eye, The day,|* the day is|spent, and shades,||and shades,|
 z4 z2 e2 | G6 A2 | =B4 c4 |"^dim." d4 e4 | d6 d2 | d8 | z8 | z8 | z8 | z8 | z8 |!p! d2 dc B3 A | %71
w: and|shades fair|lights sup-|ply, fair|lights sup-|ply.||||||All things in sweet re-|
 G8 | g2 gf e3 d | c4 z4 | f2 fe d2 d2 | c3 c B3 B | A8 |!mf! d6 dd | B2 A2 z2!p! d2 | %79
w: pose,|all things in sweet re-|pose,|all things in sweet re-|pose, Their la- bours|close;|On- ly A-|myn- tas, A-|
 B2 Ad d2 d2 | z8 | z4 d4- | d2 (cB) A2 B2 | c8- | c4 B2 B2 | A8 | G4 z4 | z4 c4- | c2 (BA) G2 A2 | %89
w: myn- tas, A- myn- tas||wastes|* his * hours in|wail\-|* ing, in|wail-|ing,|wastes|* his * hours in|
 B8 | A4 G4 | A8 | G4 G4 | (e8- | e4 d2 c2) | =B4 _e4- | e4 (d4- | d4 c4) | d8 | z8 | %100
w: wail-|ing, in|wail-|ing, in|wail\-||ing, in|* wail\-||ing,||
 z4 z2!mf! d2 | e2 f2 g2 =B2 | c2 c2 f4- | f2 e2 d4 | c6 (=BA) | G6 F2 | E4 _A4 |"^dim." G8- | G8 | %109
w: Whilst|all his hopes do|faint, and life|* is fail-|ing, do *|faint and|life is|fail\-||
 G8 | z8 | z8 | z8 | z8 | z4!p! c4 | e2 f2 g2 =B2 |"^dim." c2 c2 f4- | f2 e2 d4 | c4 z4 | %119
w: ing,|||||whilst|all his hopes do|faint, and life|* is fail-|ing,|
!pp! G4 c4- | c2 c2 =B4 | !fermata!c8 |] %122
w: and life|* is fail-|ing.|
V:3
 z8 | z4!mf! C4 | F6 F2 | =E4 G4 | C4 F4 | D4!mp! D4- | D4 G4- |[M:2/2] G2 D2 F4- | F4 E4 | D8- | %10
w: |Come,|sa- ble|night, come,|sa- ble|night, put|* on|* thy mourn\-|* ing|stole,|
 D4 D4- | D4 A4- | A2 G2 G4- | G4 ^F4 | G2 G2 c4- | c4 =B4 | c4 _A4 | G8- | G8 | z8 | z4!mf! C4 | %21
w: * put|* on|* thy mourn\-|* ing|stole,~ put on|* thy|mourn- ing|stole,|||put|
 G6"^cresc." =B,2 | (D4 E2 F2) | G8 |!f! G8 | z2!p! G2 G2 G2 | _A8 | G8 | c6 B2 | _A2 (G2 F2 A2) | %30
w: on thy|mourn\- * *|ing|stole,|And help A-|myn-|tas|sad- ly|to con\- * *|
 G8 | G6 F2 | E2 D2 C4 | E4 E4 | D8- | D8 | z8 |"^cresc." E6 D2 | C2 B,2 A,4- | A,4 A,4 | %40
w: dole,|sad- ly|to con- dole,|to con-|dole,|||sad- ly|to con- dole,|* sad-|
 D4 E2 F2 |!>(! G8- | G4!>)!!pp! G4- | G2 F2 E4 | D8- | D8 | D4!mf! D4 | G8- | G4 E2 G2- | %49
w: ly to con-|dole,|* sad\-|* ly to|con\-||dole. Be-|hold,|* the sun|
 G2 F2 E4- | E2 D2 E2 F2 | G8 | z8 | z8 | z8 | z8 | z2 G2 =B,4- | B,2 D2 G,4- | G,4 G,4 | E6 E2 | %60
w: * hath shut|* his gold- en|eye,|||||And shades,|* and shades|* fair|lights sup-|
 D4 z4 | z4 G4 |"^dim." D4 z2 A2 | ^F2 G2 G2 F2 | G8- | G8 |!p! G2 GF E3 D | C4 z4 | F2 FE D3 =E | %69
w: ply,|and|shades, and|shades fair lights sup-|ply.||All things in sweet re-|pose,|all things in sweet re-|
 ^F2 G2 G2 F2 | G4 d2 dc | B3 A G4- | G4 c2 cB | A3 G F4- | F4 (B3 A) | (G3 A B2) (AG) | %76
w: pose, Their la- bours|close, all things in|sweet re- pose,|* all things in|sweet re- pose|* their *|la\- * * bours *|
 ^F4!mf! F4- | F2 ^FF G2 F2 | z2"^dim." ^F2 G2 D!p!F | G2 A2 z4 | z4 B4- | B2 (AG) F2 G2 | A8- | %83
w: close; On\-|* ly A- myn- tas,|A- myn- tas, A-|myn- tas|wastes|* his * hours in|wail\-|
 A4 G2 G2 | (^F4 G4- | G4 ^F4) | G4 D4 | C8 | G4 G4- | G2 (F=E) D2 E2 | (^F4 G4- | G4 ^F4) | G8 | %93
w: * ing, in|wail\- *||ing, in|wail-|ing, wastes|* his * hours in|wail\- *||ing,|
 G4 (G4- | G4 F4) | G4 (E2 F2) | G8- | G8 | ^F6!mf! =F2 | G2 A2 B2 D2 | G4 G4 | G8- | G4 F4 | G8 | %104
w: in wail\-||ing, in *|wail\-||ing, Whilst|all his hopes do|faint, and|life|* is|fail-|
 G8 | z8 | z8 | z8 | z4!p! D4 | E2 F2 G2 =B,2 | C4 D4 | =E4 F4- | F4 !courtesy!_E4 | D4 D4 | %114
w: ing,||||~Whilst|all his hopes do|faint, and|life is|* fail-|ing, whilst|
 E2 F2 G2 C2 | C2 C2 G4- |"^dim." G4 F4 | G8 | E4!pp! _A4 | G8- | G8 | !fermata!G8 |] %122
w: all his hopes do|faint, and life|* is|fail-|ing, is|fail\-||ing.|
V:4
 z8 | z8 | z8 |!mf! c8 | e4 (d2 c2) | d8 |!mp! d4 e4- |[M:2/2][K:treble-8] e2 B2 d4- | (d4 c4- | %9
w: |||Come,|sa- ble *|night,|put on|* thy mourn\-||
 c4) B4 | A8- |"^." A8 | z8 | z8 | z4 c4 | g6 d2 | =e4 f4 | c8 | z8 |!mf! c4 e4- | e2 G2 c2 c2 | %21
w: * ing|stole,||||put|on thy|mourn- ing|stole,||put on|* thy mourn- ing|
 =B4"^cresc." (B4- | B4 c4) | d6 d2 |!f! =e8 | z2!p! =e2 e2 e2 | c8 | c2 g4 f2 | e2 d2 c4- | %29
w: stole, thy||mourn- ing|stole,|And help A-|myn-|tas sad- ly|to con- dole,|
 c4 f4- | f2 e2 d2 c2 | d4 g4- | g2 f2 e2 d2 | c8 | z8 | d6 c2 | B2 A2 G4 | B4 G4 | A8 | z4 f4- | %40
w: * sad\-|* ly to con-|dole, sad\-|* ly to con-|dole,||sad- ly|to con- dole,|to con-|dole,|sad\-|
 f4 e4 |!>(! d6 d2 | =e8!>)! |!pp! c6 B2 | (A4 G4) | d8 | d8 | z4!mf! d4 | c4 c2 e2- | e2 d2 c4- | %50
w: * ly|to con-|dole,|sad- ly|to *|con-|dole.|Be-|hold, the sun|* hath shut|
 c2 B2 _A3 A | G4 B2 G2- | G2 _A2 B3 c | d4 G4 | A4 d2 f2- | f2 (Bc) d3 d | d8 | z2 g2 =B4 | %58
w: * his gold- en|eye, the sun|* hath shut his|gold- en|eye, The day,|* the * day is|spent,|and shades,|
 z2 e2 G4- | G4 G4 | d4 c4 | =B4 G4 |"^dim." G4 (c3 B) | (A2 G2) A4 | G8 | z4!p! g2 gf | e3 d c4 | %67
w: and shades|* fair|lights sup-|ply, and|shades fair *|lights * sup-|ply.|All things in|sweet re- pose,|
 z4 f2 fe | (d3 c B2) (AG) | ^F2 (Bc) d3 d | d8 | g2 gf e3 d | c8 | f2 fe d3 c | B6 B2 | c4 G4 | %76
w: all things in|sweet * * re\- *|pose, Their * la- bours|close,|all things in sweet re-|pose,|all things in sweet re-|pose their|la- bours|
 d8 |!mf! d6 dd | g2 d"^dim."d d2 A2 | z2!p! ^f2 g2 f2 | z8 | z8 | z8 | z8 | z4 d4- | %85
w: close;|On- ly A-|myn- tas, A- myn- tas,|A- myn- tas|||||wastes|
 d2 (cB) A2 c2 | =B4 d4 | e6 (dc) | B3 c d4- | d4 d4 | d6 (cB) | A2 =B2 c4 | =B6 G2 | c8- | c8 | %95
w: * his * hours in|wail- ing,|wastes his *|hours in wail-|* ing,|wastes his *|hours in wail-|ing, in|wail\-||
 d4 c4 | G8 | z8 | z8 | z4!mf! d4 | e2 f2 g2 =B2 | (c3 d e3) d | c6 c2 | (=B2 c4) BB | %104
w: ing, wail-|ing,|||Whilst|all his hopes do|faint, * * and|life is|fail\- * ing, whilst|
 c2 d2 e2 G2 | e6 d2 | c6 d2 | (=B4"^dim." c4- | c4 =B4) | c4!p! G4 | G8 | G4 (_A2 B2) | c8 | G8 | %114
w: all his hopes do|faint, and|life is|fail\- *||ing, and|life|is fail\- *|ing,|and|
 c8- | c4 G4 |"^dim." _A8 | G8 |!pp! c4 d4- | d4 c4 | G8 | !fermata!G8 |] %122
w: life|* is|fail-|ing,|and life|* is|fail-|ing.|
V:5
 z8 |!mf! G8 | F6 F2 | G4 c4 | c4 c4 | G8 | z8 |[M:2/2][K:treble-8] z8 | z8 | z8 |!mp! d8 | f6 A2 | %12
w: |Come,|sa- ble|night, come,|sa- ble|night,|||||put|on thy|
 B6 c2 | d6 c2 | =B4 c4 | G8 | z4!mf! F4 | c6 G2- | G2 B4 B2 | E4 e4 | e6 e2 | d8 |"^cresc." G8 | %23
w: mourn- ing|stole, thy|mourn- ing|stole,|put|on thy|* mourn- ing|stole, thy|mourn- ing|stole,|thy|
 G6 G2 |!f! G8 | z2!p! c2 c2 c2 | (_A6 B2) | c8 | z4 f4- | f2 e2 d2 c2 | =B4 c4- | c4 =B4 | c8 | %33
w: mourn- ing|stole,|And help A-|myn\- *|tas|sad\-|* ly to con-|dole, to|* con-|dole,|
 c6 B2 | A2 G2 ^F4 | A4 ^F4 | G8- | G8 | z8 |"^cresc." f6 e2 | d4 c4 | G6 G2 | G8- | G4!pp! c4- | %44
w: sad- ly|to con- dole,|to con-|dole,|||sad- ly|to con-|dole, con-|dole,|* sad\-|
 c4 B4 | A6 A2 | G8 | z4!mf! G4 | G8 | z8 | z8 | z4 B2 d2- | d2 c2 B4- | B2 A2 B2 c2 | A8 | %55
w: * ly|to con-|dole.|Be-|hold,|||the sun|* hath shut|* his gold- en|eye,|
 z4 z2 d2 | G8- | G8 | z4 z2 c2 | E6 F2 | G4 e4 | d4 c4 |"^dim." =B4 (G2 A2) | d6 d2 | %64
w: And|shades,||and|shades fair|lights, fair|lights sup-|ply, fair *|lights sup-|
 d4!p! d2 dc | B3 A G4- | G4 c2 cB | A3 G F4- | F4 (f3 =e) | d2 (B2 A4) | B8 | z8 | z8 | z8 | z8 | %75
w: ply. All things in|sweet re- pose,|* all things in|sweet re- pose,|* Their *|la- bours *|close;|||||
 z8 | z4!mf! A4- | A2 AA B2 A2 | z2"^dim." d4 d!p!d | g2 dd d2 d2 | z8 | d6 (cB) | A3 B c4- | %83
w: |On\-|* ly A- myn- tas,|on- ly A-|myn- tas, A- myn- tas||wastes his *|hours in wail\-|
 c4 G2 G2 | d8 | d8- | d8 | z4 e4- | e2 (dc) B2 c2 | (d2 =e2 ^f2 g2 | a2) A2 B4 | d8 | d8 | z8 | %94
w: * ing, in|wail-|ing,||wastes|* his * hours in|wail\- * * *|* ing, in|wail-|ing,||
 z8 | z8 | z4 G4 | e8 | d6 d2 | (B3 A G4) | G8 | z8 | z8 | z4!mf! d4 | e2 f2 g2 =B2 | c4 G4 | %106
w: ||in|wail-|ing, in|wail\- * *|ing,|||Whilst|all his hopes do|faint, and|
 _A4 F4 |"^dim." G8- | G8 | c6!p! d2 | e4 B4 | c4 c4 | c4 g4- | g4 f4 | e8 | c4 =B4 | %116
w: life is|fail\-||ing, and|life is|fail- ing,|and life|* is|fail-|ing, is|
"^dim." (e4 c4) | d8 | z4!pp! f4 | =B4 c4 | d8 | !fermata!c8 |] %122
w: fail\- *|ing,|and|life is|fail-|ing.|
V:6
!mf! C,8 | E,8 | D,8 | C,6 B,,2 | _A,,6 A,,2 | G,,8 |!mp! G,8 |[M:2/2] B,6 D,2 | (E,6 F,2) | G,8 | %10
w: Come,|sa-|ble|night, come,|sa- ble|night,|put|on thy|mourn\- *|ing|
 D,8- | D,4 z4 | z8 | z8 | z8 | z8 | z8 |!mf! C,8 | E,6 G,,2 | _A,,6 B,,2 | C,4 C,4 | %21
w: stole,|||||||put|on thy|mourn- ing|stole, thy|
"^cresc." G,,8- | G,,8 | G,,8 |!f! C,8 | z2!p! C,2 C,2 C,2 | F,8 | C,4 C4- | C2 B,2 _A,2 G,2 | %29
w: mourn-||ing|stole,|And help A-|myn-|tas sad\-|* ly to con-|
 F,8 | G,8- | G,4 G,4 | C,8- | C,8 | D,8- | D,8 | E,8- | E,8 |"^cresc." F,8- | F,8 | G,8- | %41
w: dole,|to|* con-|dole,||sad\-||ly||to||con\-|
!>(! G,8 | C,8!>)! |!pp! C,8 | D,8- | D,8 | G,,8 | z4!mf! G,,4 | C,8 | z8 | z8 | z4 G,2 B,2- | %52
w: |dole,|to|con\-||dole.|Be-|hold,|||the sun|
 B,2 _A,2 G,4- | G,2 F,2 E,3 E, | D,8- | D,8 | z4 z2 G,2 | =B,,8 | C,8- | C,8 | G,,8 | %61
w: * hath shut|* his gold- en|eye,||And|shades,|and||shades|
 (G,,6 A,,2) |"^dim." =B,,4 (C,4 | D,8) | G,,8 |!p! G,2 G,F, E,3 D, | C,8 | F,2 F,E, D,3 C, | %68
w: fair *|lights sup\-||ply.|All things in sweet re-|pose,|all things in sweet re-|
 B,,6 C,2 | D,4 D,4 | G,,8 | z8 | z8 | z8 | z8 | z8 | z4!mf! D,4- | D,2 D,D, G,2 D,2 | %78
w: pose, Their|la- bours|close;||||||On\-|* ly A- myn- tas,|
 z2"^dim." D,2 G,2 ^F,2 | z2!p! D,2 G,2 D,2 | z4 G,4- | G,2 (F,E,) D,2 E,2 | F,8- | F,4 E,2 E,2 | %84
w: A- myn- tas,|A- myn- tas|wastes|* his * hours in|wail\-|* ing, in|
 D,8 | D,8 | =B,,8 | C,8 | G,,8 | D,8- | D,8 | D,8 | G,,8 | z4 C,4 | _A,8 | G,8 | z8 | z8 | %98
w: wail-|ing,|his|hours|in|wail\-|||ing,|in|wail-|ing,|||
 z4!mf! D,4 | E,2 F,2 G,2 =B,,2 | C,6 G,2 | C4 G,4 | _A,8 | G,8 | z8 | z8 | z8 | z8 | z8 | %109
w: Whilst|all his hopes do|faint, and|life is|fail-|ing,||||||
!p! C,4 E,4- | E,4 D,4 | C,8- | C,8 | =B,,8 | z8 | z8 | z8 | z4!pp! G,4 | _A,4 F,4 | G,8- | G,8 | %121
w: and life|* is|fail\-||ing,||||and|life is|fail\-||
 !fermata!C,8 |] %122
w: ing.|

